!!!OTL: 451. Des Maedchens Klage.
!!!COM: J. R. Zumsteeg
!!!ARE: Europa, Mitteleuropa, Deutschland
!!!SCT: B0451
!!!TXL: @@DE
!!!YEM: Copyright 1995, estate of Helmut Schaffrath.
**kern	**text
*ICvox	*
*Ivox	*
*clefG2	*
*M2/4	*
*k[]	*
*C:	*
!LO:TX:a:t=Gemäßigt.	!
{8e	Der
=1	=1
4g	Eich-
4g	-wald
=2	=2
4g	brau-
8e	-ſet,
8c	die
=3	=3
4g	Wol-
4g	-ken
=4	=4
4g	ʒiehn,
8r}	.
{8g	das
=5	=5
4.cc	Mägdlein
8cc	.
=6	=6
(8b/L	ſi-
8aJ)	.
8a	-tʒet
8a	an
=7	=7
8gL	U-
8aJ	.
8.gL	-fers
16fJ	.
=8	=8
4e	Grün;
8r}	.
{8g	es
=9	=9
4cc	bricht
8.cc	ſich
16ee	die
=10	=10
4ee	Wel-
8b	-le
8b	mit
=11	=11
4ee	Macht,
8r	.
8b	mit
=12	=12
4cc	Macht,
8r}	.
{8cc	und
=13	=13
4f#	ſie
8.f#	ſeufʒt
16b	hin-
=14	=14
4b/	-aus
(16aL	in
16gJ)	.
(16f#L	die
16eJ)	.
=15	=15
4.e	ſin-
(16d#L	-ſtre
16eJ)	.
=16	=16
4f#	Nacht,
8r}	.
{8b	das
=17	=17
4cc	Au-
8cc	-ge
8cc	von
=18	=18
4d#	Wei-
8e	-nen
8g	ge-
=19	=19
(4f#	-trü-
4b/)	.
=20	=20
4e	-bet:
8r;}	.
{8e	"Das
=21	=21
4g^	Herʒ
8.e	iſt
16e	ge-
=22	=22
4fn	-ſtor-
8d	-ben,
8d	die
=23	=23
4e	Welt
4g	iſt
=24	=24
4d	leer,
8r}	.
{8g	und
=25	=25
4.cc	wei-
8cc	-ier
=26	=26
8b/L	giebt
8aJ	.
8a	ſie
8a	dem
=27	=27
4d	Wun-
8d	-ſche
8g	nichts
=28	=28
4e	mehr.
8r}	.
{8cc	Du
=29	=29
4.cc	Hei-
8e	-li-
=30	=30
4e	-ge,
4r	.
=31	=31
4f	ru-
8f	-fe
8f	dein
=32	=32
4.g	Kind
8g	ʒu-
=33	=33
4a	-rück!
4r	.
=34	=34
4r	.
8r}	.
{8a	Jch
=35	=35
4g	ha-
12gL	-be
12aJ	.
12b	ge-
=36	=36
!LO:TUP:a	!
(12ccL	-noſ-
12ee	.
12ddJ)	.
!LO:TUP:a	!
(12cc	.
12b	-ſen
12a)	das
=37	=37
4g	ir-
12gL	-di-
12aJ	.
12b	-ſche
=38	=38
4cc	Glück,
8r}	.
{8c	ich
=39	=39
4a	ha-
8a	-be
8a	ge-
=40	=40
4cc	-lebt
!LO:TUP:a	!
12ccL	und
12aJ	.
12f	ge-
=41	=41
(4e	-lie-
4d)	.
=42	=42
4c	-bet."
!LO:N:vis=4	!
8r}	.
==	==
!!!AGN: Liebes - Lied, Leid, Klage, Tod
!!!GTL: Liebeslieder - Liebesleid
!!!ONB: ESAC (Essen Associative Code) Database: BOEHME
!!!AMT: simple duple
!!!AIN: vox
!!!EED: Helmut Schaffrath
!!!EEV: 1.0
!!@@COMMENT:"Gedicht von Fr. v. Schiller, 1798. Muſik von ſeinem Freunde, dem Concertmeiſter Ʒumſteeg in 
!!Stuttgart. Ohne Klavierbegl. (in Triolen) iſt der Geſang nur ſehr ungenügend wieder ʒu
!!geben. Noch ſchwerer iſts, Schubert's ſchöne Muſik daʒu ohne Klavierſatʒ darʒuſtellen."
!!@@END:
!!!Text: F. Schiller
!!!URL-scan: https://archive.org/details/BoehmeVtLieder1895/page/n363/mode/2up
!!!ENC: Anna Maria Matuszewska
!!!EEV: 2024/09/07
*-	*-
